svg/color/htb.svg

<?xml version="1.0" encoding="UTF-8" ?>
<!DOCTYPE svg PUBLIC "-//W3C//DTD SVG 1.1//EN" "http://www.w3.org/Graphics/SVG/1.1/DTD/svg11.dtd">
<svg width="249pt" height="250pt" viewBox="0 0 249 250" version="1.1" xmlns="http://www.w3.org/2000/svg">
<g id="#ffffffff">
<path fill="#ffffff" opacity="1.00" d=" M 0.00 0.00 L 124.56 0.00 C 85.26 22.56 46.04 45.25 6.76 67.84 C 4.55 69.11 2.45 70.62 0.00 71.42 L 0.00 0.00 Z" />
<path fill="#ffffff" opacity="1.00" d=" M 124.67 0.00 L 249.00 0.00 L 249.00 71.76 C 207.59 47.78 166.03 24.07 124.67 0.00 Z" />
<path fill="#ffffff" opacity="1.00" d=" M 116.90 33.85 C 119.53 32.38 122.04 30.69 124.82 29.49 C 157.84 48.87 191.12 67.82 224.28 86.96 C 224.34 101.00 224.35 115.04 224.28 129.08 C 186.56 107.80 149.09 86.07 111.47 64.61 C 109.37 63.66 107.02 61.01 104.65 62.68 C 96.54 67.59 88.45 72.53 80.34 77.45 C 80.28 77.78 80.14 78.45 80.07 78.78 C 93.90 86.78 107.80 94.68 121.61 102.71 C 122.34 103.75 120.83 104.63 120.37 105.44 C 113.49 113.60 106.59 121.76 99.87 130.06 C 98.89 129.80 97.95 129.44 97.05 128.98 C 73.13 115.11 49.09 101.43 25.17 87.56 C 25.23 87.32 25.33 86.83 25.38 86.59 C 55.91 69.05 86.39 51.42 116.90 33.85 Z" />
<path fill="#ffffff" opacity="1.00" d=" M 124.16 144.28 C 131.89 135.39 139.28 126.22 146.87 117.21 C 172.49 131.95 198.11 146.71 223.74 161.43 C 223.73 161.72 223.70 162.29 223.68 162.58 C 192.34 180.58 161.06 198.69 129.73 216.72 C 128.08 217.64 126.47 218.63 124.91 219.69 C 121.96 218.57 119.41 216.70 116.65 215.22 C 86.01 197.52 55.32 179.91 24.71 162.16 C 24.73 148.14 24.68 134.12 24.73 120.10 C 62.71 141.64 100.48 163.58 138.29 185.42 C 147.27 179.73 156.23 173.98 165.08 168.08 C 151.47 160.09 137.55 152.60 124.16 144.28 Z" />
<path fill="#ffffff" opacity="1.00" d=" M 0.00 178.24 C 41.42 202.21 82.97 225.94 124.34 250.00 L 0.00 250.00 L 0.00 178.24 Z" />
<path fill="#ffffff" opacity="1.00" d=" M 242.73 181.88 C 244.76 180.67 246.75 179.36 249.00 178.58 L 249.00 250.00 L 124.51 250.00 C 163.92 227.29 203.32 204.58 242.73 181.88 Z" />
</g>
<g id="#1ab394ff">
<path fill="#1ab394" opacity="1.00" d=" M 124.56 0.00 L 124.67 0.00 C 166.03 24.07 207.59 47.78 249.00 71.76 L 249.00 178.58 C 246.75 179.36 244.76 180.67 242.73 181.88 C 203.32 204.58 163.92 227.29 124.51 250.00 L 124.34 250.00 C 82.97 225.94 41.42 202.21 0.00 178.24 L 0.00 71.42 C 2.45 70.62 4.55 69.11 6.76 67.84 C 46.04 45.25 85.26 22.56 124.56 0.00 M 116.90 33.85 C 86.39 51.42 55.91 69.05 25.38 86.59 C 25.33 86.83 25.23 87.32 25.17 87.56 C 49.09 101.43 73.13 115.11 97.05 128.98 C 97.95 129.44 98.89 129.80 99.87 130.06 C 106.59 121.76 113.49 113.60 120.37 105.44 C 120.83 104.63 122.34 103.75 121.61 102.71 C 107.80 94.68 93.90 86.78 80.07 78.78 C 80.14 78.45 80.28 77.78 80.34 77.45 C 88.45 72.53 96.54 67.59 104.65 62.68 C 107.02 61.01 109.37 63.66 111.47 64.61 C 149.09 86.07 186.56 107.80 224.28 129.08 C 224.35 115.04 224.34 101.00 224.28 86.96 C 191.12 67.82 157.84 48.87 124.82 29.49 C 122.04 30.69 119.53 32.38 116.90 33.85 M 124.16 144.28 C 137.55 152.60 151.47 160.09 165.08 168.08 C 156.23 173.98 147.27 179.73 138.29 185.42 C 100.48 163.58 62.71 141.64 24.73 120.10 C 24.68 134.12 24.73 148.14 24.71 162.16 C 55.32 179.91 86.01 197.52 116.65 215.22 C 119.41 216.70 121.96 218.57 124.91 219.69 C 126.47 218.63 128.08 217.64 129.73 216.72 C 161.06 198.69 192.34 180.58 223.68 162.58 C 223.70 162.29 223.73 161.72 223.74 161.43 C 198.11 146.71 172.49 131.95 146.87 117.21 C 139.28 126.22 131.89 135.39 124.16 144.28 Z" />
</g>
</svg>

<?xml version="1.0" encoding="utf-8"?>
<!-- Generator: Adobe Illustrator 26.0.3, SVG Export Plug-In . SVG Version: 6.00 Build 0)  -->
<svg version="1.1" id="Layer_1" xmlns="http://www.w3.org/2000/svg" xmlns:xlink="http://www.w3.org/1999/xlink" x="0px" y="0px"
	 viewBox="0 0 249 250" style="enable-background:new 0 0 249 250;" xml:space="preserve">
<style type="text/css">
	.st0{fill:#FFFFFF;}
	.st1{fill:#1AB394;}
</style>
<g id="_x23_ffffffff">
	<path class="st0" d="M116.9,33.8c2.6-1.5,5.1-3.2,7.9-4.4c33,19.4,66.3,38.3,99.5,57.5c0.1,14,0.1,28.1,0,42.1
		c-37.7-21.3-75.2-43-112.8-64.5c-2.1-1-4.5-3.6-6.8-1.9c-8.1,4.9-16.2,9.8-24.3,14.8c-0.1,0.3-0.2,1-0.3,1.3
		c13.8,8,27.7,15.9,41.5,23.9c0.7,1-0.8,1.9-1.2,2.7c-6.9,8.2-13.8,16.3-20.5,24.6c-1-0.3-1.9-0.6-2.8-1.1
		c-23.9-13.9-48-27.5-71.9-41.4c0.1-0.2,0.2-0.7,0.2-1C55.9,69.1,86.4,51.4,116.9,33.8z"/>
	<path class="st0" d="M124.2,144.3c7.7-8.9,15.1-18.1,22.7-27.1c25.6,14.7,51.2,29.5,76.9,44.2c0,0.3,0,0.9-0.1,1.2
		c-31.3,18-62.6,36.1-93.9,54.1c-1.6,0.9-3.3,1.9-4.8,3c-3-1.1-5.5-3-8.3-4.5c-30.6-17.7-61.3-35.3-91.9-53.1c0-14,0-28,0-42.1
		c38,21.5,75.8,43.5,113.6,65.3c9-5.7,17.9-11.4,26.8-17.3C151.5,160.1,137.6,152.6,124.2,144.3z"/>
</g>
<g id="_x23_1ab394ff">
	<path class="st1" d="M124.6,0h0.1C166,24.1,207.6,47.8,249,71.8v106.8c-2.2,0.8-4.2,2.1-6.3,3.3c-39.4,22.7-78.8,45.4-118.2,68.1
		h-0.2C83,225.9,41.4,202.2,0,178.2V71.4c2.5-0.8,4.6-2.3,6.8-3.6C46,45.2,85.3,22.6,124.6,0 M116.9,33.8
		c-30.5,17.6-61,35.2-91.5,52.7c0,0.2-0.1,0.7-0.2,1c23.9,13.9,48,27.6,71.9,41.4c0.9,0.5,1.8,0.8,2.8,1.1
		c6.7-8.3,13.6-16.5,20.5-24.6c0.5-0.8,2-1.7,1.2-2.7c-13.8-8-27.7-15.9-41.5-23.9c0.1-0.3,0.2-1,0.3-1.3
		c8.1-4.9,16.2-9.9,24.3-14.8c2.4-1.7,4.7,1,6.8,1.9c37.6,21.5,75.1,43.2,112.8,64.5c0.1-14,0.1-28.1,0-42.1
		c-33.2-19.1-66.4-38.1-99.5-57.5C122,30.7,119.5,32.4,116.9,33.8 M124.2,144.3c13.4,8.3,27.3,15.8,40.9,23.8
		c-8.9,5.9-17.8,11.6-26.8,17.3c-37.8-21.8-75.6-43.8-113.6-65.3c0,14,0,28,0,42.1c30.6,17.8,61.3,35.4,91.9,53.1
		c2.8,1.5,5.3,3.4,8.3,4.5c1.6-1.1,3.2-2.1,4.8-3c31.3-18,62.6-36.1,93.9-54.1c0-0.3,0.1-0.9,0.1-1.2
		c-25.6-14.7-51.2-29.5-76.9-44.2C139.3,126.2,131.9,135.4,124.2,144.3z"/>
</g>
</svg>
